X: 5
T: The Rooms Of Dooagh
R: jig
M: 6/8
L: 1/8
K: Dmin
|:FDD b,DD|FDD F2G|FDD b,Ab,|c3 cb,G|
FDD b,DD|~F3 F2f|=edc b,GF|1 G2c cb,G:|2 G2c cd=e||
|:~f3 fdc|b,GA b,cd|fdg fdc|d2g gfd|
fdg fdc|b,GA b,cd|edc b,GF|1 G2c cd=e:|2 G2c cb,G||

